X: 22
T:Pearl O'Shaughnessy's Barndance #2
R:Barndance
S:Smoky Chimney CD
M:4/4
L:1/8
K:G
Bc|:d2G2G2AB|c2E2E2FE|DEFG ABcd|e2d2B2Bc|
d2G2G2AB|c2E2E2FE|DEFG AcBA|DGGFG2:|
Bd|:g2g2f2f2|efedA2AG|FGABc2Bc|e2d2B2Bd|
g2g2f2f2|efedA2AG|FGAB cAFG|AGGFG2:|
